X: 727
T: Aiken Drum
R: polka
M: 2/4
K: Dmajor
D>E|:FF G/F/E/D/|B,2 D>B,|A,A, B,D|FE ED/E/|
FF G/F/E/D/|B,2 D>B,|A,A, B,C|D2 D>E:|
DE|:F>F ED|G>A BA/G/|FA FD|FE ED/E/|
FF G/F/E/D/|B,2 D>B,|A,A, B,C|D2 DE:|

